icons/1_Primary/Yotta.svg

<svg width="1024" height="1024" viewBox="0 0 1024 1024" fill="none" xmlns="http://www.w3.org/2000/svg">
<g clip-path="url(#clip0_2_4002)">
<path d="M512 1024C794.77 1024 1024 794.77 1024 512C1024 229.23 794.77 0 512 0C229.23 0 0 229.23 0 512C0 794.77 229.23 1024 512 1024Z" fill="#8C72BD"/>
<path d="M338.19 611.43C425.677 518.437 513.18 425.457 600.7 332.49C609.493 340.763 618.28 349.043 627.06 357.33C623.95 364.02 621.93 371.68 623.62 379.03C624.351 382.222 625.976 385.14 628.305 387.442C630.634 389.744 633.57 391.336 636.77 392.03C644.52 393.58 652.47 391.21 659.42 387.82C668.493 396.307 677.54 404.82 686.56 413.36L424 692.28C414.68 683.56 405.44 674.75 396.1 666.05C398.3 659.37 399.21 651.91 396.76 645.17C394.62 639.17 389.49 634.03 383.1 632.78C376.71 631.53 370.3 633.49 364.72 636.45C355.887 628.15 347.043 619.81 338.19 611.43ZM623.94 332.43C624.64 333.097 625.337 333.763 626.03 334.43L640.03 347.5C652.76 334.02 665.41 320.5 678.17 307.03C649.66 279.94 620.94 253.03 592.34 226.09C504.813 319.01 417.303 411.963 329.81 504.95C345.097 519.363 360.39 533.773 375.69 548.18C388.77 534.55 401.58 520.67 414.58 506.97C471.1 446.883 527.633 386.807 584.18 326.74C587.18 323.74 589.86 319.74 594.11 318.28C596.376 317.329 598.813 316.853 601.27 316.88C604.79 316.97 607.4 317.65 609.77 319.63C612.371 321.501 614.791 323.61 617 325.93L623.94 332.43ZM400.06 691.61C399.36 690.943 398.663 690.276 397.97 689.61L383.97 676.54C371.24 690.02 358.59 703.54 345.83 717.01C374.34 744.1 403.06 771.01 431.66 797.95C519.187 705.003 606.697 612.036 694.19 519.05C678.903 504.637 663.61 490.227 648.31 475.82C635.23 489.45 622.42 503.33 609.42 517.03C552.9 577.117 496.367 637.193 439.82 697.26C436.82 700.26 434.14 704.26 429.89 705.72C427.624 706.67 425.187 707.147 422.73 707.12C419.21 707.03 416.6 706.35 414.23 704.37C411.629 702.499 409.209 700.39 407 698.07L400.06 691.61Z" fill="white"/>
</g>
<defs>
<clipPath id="clip0_2_4002">
<rect width="1024" height="1024" fill="white"/>
</clipPath>
</defs>
</svg>

<svg xmlns="http://www.w3.org/2000/svg" viewBox="0 0 1024 1024">
   <circle cx="512" cy="512" r="512" style="fill:#3916af"/>
   <path d="M338.19 611.43Q469.42 471.94 600.7 332.49q13.19 12.41 26.36 24.84c-3.11 6.69-5.13 14.35-3.44 21.7a17.24 17.24 0 0 0 13.15 13c7.75 1.55 15.7-.82 22.65-4.21q13.61 12.73 27.14 25.54L424 692.28c-9.32-8.72-18.56-17.53-27.9-26.23 2.2-6.68 3.11-14.14.66-20.88-2.14-6-7.27-11.14-13.66-12.39s-12.8.71-18.38 3.67q-13.25-12.45-26.53-25.02Zm285.75-279q1.05 1 2.09 2l14 13.07c12.73-13.48 25.38-27 38.14-40.47-28.51-27.09-57.23-54-85.83-80.94Q461.05 365.47 329.81 504.95q22.93 21.62 45.88 43.23c13.08-13.63 25.89-27.51 38.89-41.21q84.78-90.13 169.6-180.23c3-3 5.68-7 9.93-8.46a18 18 0 0 1 7.16-1.4c3.52.09 6.13.77 8.5 2.75a51.53 51.53 0 0 1 7.23 6.3ZM400.06 691.61q-1.05-1-2.09-2l-14-13.07c-12.73 13.48-25.38 27-38.14 40.47 28.51 27.09 57.23 54 85.83 80.94q131.29-139.42 262.53-278.9-22.93-21.62-45.88-43.23c-13.08 13.63-25.89 27.51-38.89 41.21q-84.78 90.13-169.6 180.23c-3 3-5.68 7-9.93 8.46a18 18 0 0 1-7.16 1.4c-3.52-.09-6.13-.77-8.5-2.75a51.53 51.53 0 0 1-7.23-6.3Z" style="fill:#fff"/>
</svg>
